!!!OTL: 591. Das erwaehlte Schuetzchen.
!!!ODT: 1859
!!!ARE: Europa, Mitteleuropa, Deutschland, Kaiserslautern, Westrich
!!!SCT: E0591A
!!!TXL: @@DE
!!!YEM: Copyright 1995, estate of Helmut Schaffrath.
**kern	**text
*ICvox	*
*M6/8	*
*k[b-]	*
*F:	*
!LO:TX:a:t=Mäßig bewegt.	!
!LO:TX:a:t=Aus dem Weſtrich (bei Kaiſerslautern). 1859.	!
{16fL	Jch
16gJ	.
=1	=1
8.a	ha-
16b-/	-be
8a	mir
8g	ei-
8f	-nes
8g	er-
=2	=2
4.f	-wählt,
4r}	.
{16aL	ein
16b-J	.
=3	=3
8.cc	Mäd-
16dd	-chen
8cc	und
8cc	das
8b-	mir
8b-	ge-
=4	=4
4.a	-fällt,
4r}	.
{16aL	ſo
16b-J	.
=5	=5
8cc	hübſch
8cc	und
8dd	ſo
4b-}	fein,
{16gL	von
16aJ	.
=6	=6
8b-	Tu-
8b-	-gend
8cc	ſo
4a}	rein,
{16fL	ach
16gJ	.
=7	=7
8.a	Schätʒchen
16b-/	.
8a	ach
8g	wä-
8f	-reſt
8g	du
=8	=8
4.f	mein!
4r}	.
==	==
!!!AGN: Liebes - Lied
!!!ONB: ESAC (Essen Associative Code) Database: ERK1
!!!AMT: compound duple
!!!AIN: vox
!!!EED: Helmut Schaffrath
!!!EEV: 1.0
!!!GTL: Liebeslieder [Neuere (aus dem 18. bis 19. Jahrh.) - Liebeslust]
!!!URL-scan: https://rosdok.uni-rostock.de/mcrviewer/recordIdentifier/rosdok_ppn745177662/iview2/phys_0417.iview2?x=-128.77276441889308&y=195.19009627075866&scale=0.5870222003877485&rotation=0&layout=singlePageLayout
!!!ENC: Anna Maria Matuszewska
!!!EEV: 2024/11/12
*-	*-
